src/assets/brandDetails/negativeRating.svg

<svg fill="none" height="37" viewBox="0 0 40 37" width="40" xmlns="http://www.w3.org/2000/svg"><path d="m25.5248.175592-16.2417.000001c-1.49785 0-2.77914.902317-3.32053 2.201657l-5.450002 12.72265c-.162419.4151-.252648.8482-.252648 1.3174l.000001 3.6093c0 1.9851 1.624169 3.6093 3.609269 3.6093h11.38721l-1.7144 8.2471-.0541.5775c0 .7399.3068 1.4257.794 1.9129l1.913 1.8949 11.8925-11.8925c.6497-.6497 1.0467-1.552 1.0467-2.5446v-18.04634c0-1.9851-1.6242-3.609268-3.6093-3.609268zm0 21.655608-7.8321 7.8321 2.4182-9.6367h-16.24171v-3.6093l5.41391-12.63243 16.2417-.00001zm14.4371 0h-7.2185v-21.655609h7.2185z" fill="#fc2038"/></svg>

<svg width="40" height="37" viewBox="0 0 40 37" fill="none" xmlns="http://www.w3.org/2000/svg">
<path d="M25.5248 0.175592L9.2831 0.175593C7.78525 0.175593 6.50396 1.07791 5.96257 2.37725L0.512568 15.0999C0.350149 15.515 0.25992 15.9481 0.25992 16.4173L0.259921 20.0266C0.259921 22.0117 1.88409 23.6359 3.86919 23.6359L15.2564 23.6359L13.542 31.883L13.4879 32.4605C13.4879 33.2004 13.7947 33.8862 14.2819 34.3734L16.1949 36.2683L28.0874 24.3758C28.7371 23.7261 29.1341 22.8238 29.1341 21.8312L29.1341 3.78486C29.1341 1.79976 27.5099 0.175592 25.5248 0.175592ZM25.5248 21.8312L17.6927 29.6633L20.1109 20.0266L3.86919 20.0266L3.86919 16.4173L9.2831 3.78487L25.5248 3.78486L25.5248 21.8312ZM39.9619 21.8312L32.7434 21.8312L32.7434 0.175591L39.9619 0.175591L39.9619 21.8312Z" fill="#FC2038"/>
</svg>
